icons/svg/poi_colored/water_tower.svg

<?xml version="1.0" encoding="UTF-8" standalone="no"?>
<!-- Created with Inkscape (http://www.inkscape.org/) -->

<svg
   xmlns:dc="http://purl.org/dc/elements/1.1/"
   xmlns:cc="http://creativecommons.org/ns#"
   xmlns:rdf="http://www.w3.org/1999/02/22-rdf-syntax-ns#"
   xmlns:svg="http://www.w3.org/2000/svg"
   xmlns="http://www.w3.org/2000/svg"
   xmlns:sodipodi="http://sodipodi.sourceforge.net/DTD/sodipodi-0.dtd"
   xmlns:inkscape="http://www.inkscape.org/namespaces/inkscape"
   version="1.0"
   width="580"
   height="580"
   id="svg2"
   sodipodi:version="0.32"
   inkscape:version="0.91 r"
   sodipodi:docname="water_tower.svg"
   inkscape:output_extension="org.inkscape.output.svg.inkscape">
  <metadata
     id="metadata10">
    <rdf:RDF>
      <cc:Work
         rdf:about="">
        <dc:format>image/svg+xml</dc:format>
        <dc:type
           rdf:resource="http://purl.org/dc/dcmitype/StillImage" />
        <cc:license
           rdf:resource="http://web.resource.org/cc/PublicDomain" />
        <dc:language>en</dc:language>
      </cc:Work>
    </rdf:RDF>
  </metadata>
  <sodipodi:namedview
     inkscape:window-height="1004"
     inkscape:window-width="1920"
     inkscape:pageshadow="2"
     inkscape:pageopacity="0.0"
     guidetolerance="10.0"
     gridtolerance="10.0"
     objecttolerance="10.0"
     borderopacity="1.0"
     bordercolor="#666666"
     pagecolor="#ffffff"
     id="base"
     showgrid="false"
     inkscape:zoom="0.5"
     inkscape:cx="325.71452"
     inkscape:cy="279.84177"
     inkscape:window-x="1680"
     inkscape:window-y="0"
     inkscape:current-layer="svg2"
     inkscape:window-maximized="1" />
  <defs
     id="defs4">
    <inkscape:perspective
       sodipodi:type="inkscape:persp3d"
       inkscape:vp_x="0 : 290 : 1"
       inkscape:vp_y="0 : 1000 : 0"
       inkscape:vp_z="580 : 290 : 1"
       inkscape:persp3d-origin="290 : 193.33333 : 1"
       id="perspective12" />
    <style
       type="text/css"
       id="style6">
   
    .fil0 {fill:#EF7900}
   
  </style>
    <inkscape:perspective
       id="perspective6807"
       inkscape:persp3d-origin="29.116032 : 19.410688 : 1"
       inkscape:vp_z="58.232063 : 29.116032 : 1"
       inkscape:vp_y="0 : 1000 : 0"
       inkscape:vp_x="0 : 29.116032 : 1"
       sodipodi:type="inkscape:persp3d" />
    <inkscape:perspective
       id="perspective6954"
       inkscape:persp3d-origin="290 : 193.33333 : 1"
       inkscape:vp_z="580 : 290 : 1"
       inkscape:vp_y="0 : 1000 : 0"
       inkscape:vp_x="0 : 290 : 1"
       sodipodi:type="inkscape:persp3d" />
    <inkscape:perspective
       id="perspective2541"
       inkscape:persp3d-origin="240 : 160 : 1"
       inkscape:vp_z="480 : 240 : 1"
       inkscape:vp_y="0 : 1000 : 0"
       inkscape:vp_x="0 : 240 : 1"
       sodipodi:type="inkscape:persp3d" />
    <inkscape:perspective
       id="perspective2750"
       inkscape:persp3d-origin="215 : 143.33333 : 1"
       inkscape:vp_z="430 : 215 : 1"
       inkscape:vp_y="0 : 1000 : 0"
       inkscape:vp_x="0 : 215 : 1"
       sodipodi:type="inkscape:persp3d" />
    <inkscape:perspective
       id="perspective3730"
       inkscape:persp3d-origin="88.929146 : 101.19778 : 1"
       inkscape:vp_z="177.85829 : 151.79668 : 1"
       inkscape:vp_y="0 : 1000 : 0"
       inkscape:vp_x="0 : 151.79668 : 1"
       sodipodi:type="inkscape:persp3d" />
  </defs>
  <g
     id="g1327">
    <path
       d="M 66.275,1.768 C 24.94,1.768 1.704,23.139 1.704,66.804 L 1.704,516.927 C 1.704,557.771 22.598,579.156 63.896,579.156 L 515.92,579.156 C 557.227,579.156 578.149,558.84 578.149,516.927 L 578.149,66.804 C 578.149,24.203 557.227,1.768 514.627,1.768 C 514.624,1.768 66.133,1.625 66.275,1.768 z"
       style="fill:#111111;stroke:#eeeeee;stroke-width:3.40799999"
       id="path1329" />
  </g>
  <path
     style="fill:#ffffff;fill-opacity:1;fill-rule:evenodd"
     d="m 210.58622,66.78125 c -13.25934,0.59353 -27.79137,12.41607 -40.75573,13.125 -0.23585,0.0043 -0.47043,0.0031 -0.70549,0 l 0,31.28125 c 0.23514,0.003 0.46956,0.0356 0.70549,0.0312 12.96436,-0.58844 27.49639,-12.71092 40.75573,-13.125 12.91539,-0.5897 24.45801,10.38911 37.47247,10.625 13.21035,0.12049 26.61257,-9.91985 40.75572,-9.625 13.94613,0.2346 28.14267,11.1814 42.38378,11.125 13.9951,-0.35509 27.25605,-12.00706 41.8411,-12.125 10.77368,-0.04153 22.3515,6.125 33.42946,9.5 l 0,-31.375 c -11.07796,-3.35024 -22.65579,-9.4375 -33.42946,-9.4375 -14.58504,0.11921 -27.846,11.7699 -41.8411,12.125 -14.2411,0.05769 -28.43766,-10.85788 -42.38378,-11.09375 -14.14314,-0.41278 -27.54536,9.683 -40.75572,9.5625 -13.01336,-0.29356 -24.55708,-11.06553 -37.47247,-10.59375 z"
     id="path113"
     inkscape:connector-curvature="0" />
  <path
     style="fill:#ffffff;fill-opacity:1;fill-rule:evenodd"
     d="m 211.80726,125.15625 c -0.40101,-0.006 -0.81744,0.0165 -1.22104,0.0312 -13.25934,0.58967 -27.79137,12.38226 -40.75573,13.09375 -0.23585,0.004 -0.47043,0.003 -0.70549,0 l 0,31.3125 c 0.23505,0.003 0.46964,0.004 0.70549,0 12.96436,-0.71148 27.49639,-12.53531 40.75573,-13.125 12.91539,-0.47303 24.45801,10.2989 37.47247,10.59375 13.21035,0.11793 26.61257,-9.97656 40.75572,-9.5625 13.94613,0.23717 28.14267,11.154 42.38378,11.09375 13.9951,-0.35255 27.25605,-12.00962 41.8411,-12.125 10.77368,0 22.3515,6.08784 33.42946,9.4375 l 0,-31.28125 c -11.07845,-3.34956 -22.65528,-9.4375 -33.42946,-9.4375 -14.58504,0.11921 -27.846,11.74123 -41.8411,12.09375 -14.2411,0.0602 -28.43766,-10.85659 -42.38378,-11.09375 -14.14314,-0.41408 -27.54536,9.68043 -40.75572,9.5625 -12.60669,-0.28564 -23.82018,-10.39297 -36.25143,-10.59375 z"
     id="path121"
     inkscape:connector-curvature="0" />
  <path
     style="opacity:1;fill:none;fill-rule:evenodd;stroke:#ffffff;stroke-width:24;stroke-linecap:round;stroke-linejoin:miter;stroke-miterlimit:4;stroke-dasharray:none;stroke-opacity:1"
     d="M 246.40581,285.17979 L 351.10308,382.09616"
     id="path3768" />
  <path
     style="opacity:1;fill:none;fill-opacity:1;stroke:#ffffff;stroke-width:30;stroke-linecap:square;stroke-linejoin:round;stroke-miterlimit:4;stroke-dasharray:none;stroke-dashoffset:0;stroke-opacity:1"
     d="M 451.13409,70.696192 L 451.13409,251.70145 L 124.45079,251.70145 L 124.45079,70.696188"
     id="rect9358" />
  <path
     id="path9891"
     d="M 323.10308,285.17979 L 218.40581,382.09616"
     style="opacity:1;fill:none;fill-rule:evenodd;stroke:#ffffff;stroke-width:24;stroke-linecap:round;stroke-linejoin:miter;stroke-miterlimit:4;stroke-dasharray:none;stroke-opacity:1" />
  <path
     id="path9893"
     d="M 231.51677,371.74659 L 402.79616,501.30396"
     style="opacity:1;fill:none;fill-rule:evenodd;stroke:#ffffff;stroke-width:24;stroke-linecap:round;stroke-linejoin:miter;stroke-miterlimit:4;stroke-dasharray:none;stroke-opacity:1" />
  <path
     style="opacity:1;fill:none;fill-rule:evenodd;stroke:#ffffff;stroke-width:24;stroke-linecap:round;stroke-linejoin:miter;stroke-miterlimit:4;stroke-dasharray:none;stroke-opacity:1"
     d="M 340.79616,371.74659 L 169.51677,501.30396"
     id="path9895" />
  <path
     style="fill:none;fill-opacity:0.75;fill-rule:evenodd;stroke:#ffffff;stroke-width:30;stroke-linecap:round;stroke-linejoin:round;stroke-miterlimit:4;stroke-opacity:1;stroke-dasharray:none"
     sodipodi:nodetypes="cc"
     id="path9928"
     d="M 322.49551,253.36946 C 322.49551,277.70251 358.6272,446.19307 425.95526,531.40601" />
  <path
     d="M 247.95526,253.36946 C 247.95526,277.70251 211.82357,446.19307 144.49551,531.40601"
     id="path9930"
     sodipodi:nodetypes="cc"
     style="fill:none;fill-opacity:0.75;fill-rule:evenodd;stroke:#ffffff;stroke-width:30;stroke-linecap:round;stroke-linejoin:round;stroke-miterlimit:4;stroke-opacity:1;stroke-dasharray:none" />
</svg>

<svg width="580" height="580" viewBox="0 0 580 580" fill="none" xmlns="http://www.w3.org/2000/svg">
<g clip-path="url(#clip0)">
<path d="M66.275 1.76815C24.94 1.76815 1.70398 23.1391 1.70398 66.8041V516.927C1.70398 557.771 22.598 579.156 63.896 579.156H515.92C557.227 579.156 578.149 558.84 578.149 516.927V66.8041C578.149 24.2031 557.227 1.76815 514.627 1.76815C514.624 1.76815 66.133 1.62515 66.275 1.76815Z" fill="#111111" stroke="#EEEEEE" stroke-width="3.408"/>
<path fill-rule="evenodd" clip-rule="evenodd" d="M210.586 66.7812C197.327 67.3748 182.795 79.1973 169.83 79.9062C169.595 79.9105 169.36 79.9093 169.125 79.9062V111.187C169.36 111.19 169.595 111.223 169.83 111.219C182.795 110.63 197.327 98.5077 210.586 98.0937C223.502 97.504 235.044 108.483 248.059 108.719C261.269 108.839 274.671 98.7988 288.814 99.0937C302.761 99.3283 316.957 110.275 331.198 110.219C345.193 109.864 358.454 98.2116 373.039 98.0937C383.813 98.0521 395.391 104.219 406.469 107.594V76.2187C395.391 72.8684 383.813 66.7812 373.039 66.7812C358.454 66.9004 345.193 78.5511 331.198 78.9062C316.957 78.9639 302.761 68.0483 288.814 67.8124C274.671 67.3996 261.269 77.4954 248.059 77.3749C235.045 77.0814 223.502 66.3094 210.586 66.7812V66.7812Z" fill="white"/>
<path fill-rule="evenodd" clip-rule="evenodd" d="M211.807 125.156C211.406 125.15 210.99 125.173 210.586 125.187C197.327 125.777 182.795 137.57 169.83 138.281C169.595 138.285 169.36 138.284 169.125 138.281V169.594C169.36 169.597 169.595 169.598 169.83 169.594C182.795 168.882 197.327 157.058 210.586 156.469C223.502 155.996 235.044 166.768 248.059 167.062C261.269 167.18 274.671 157.086 288.814 157.5C302.761 157.737 316.957 168.654 331.198 168.594C345.193 168.241 358.454 156.584 373.039 156.469C383.813 156.469 395.391 162.557 406.469 165.906V134.625C395.39 131.275 383.813 125.187 373.039 125.187C358.454 125.307 345.193 136.929 331.198 137.281C316.957 137.341 302.761 126.425 288.814 126.187C274.671 125.773 261.269 135.868 248.059 135.75C235.452 135.464 224.239 125.357 211.807 125.156V125.156Z" fill="white"/>
<path d="M246.406 285.18L351.103 382.096" stroke="white" stroke-width="24" stroke-linecap="round"/>
<path d="M451.134 70.6963V251.702H124.451V70.6963" stroke="white" stroke-width="30" stroke-linecap="square" stroke-linejoin="round"/>
<path d="M323.103 285.18L218.406 382.096" stroke="white" stroke-width="24" stroke-linecap="round"/>
<path d="M231.517 371.747L402.796 501.304" stroke="white" stroke-width="24" stroke-linecap="round"/>
<path d="M340.796 371.747L169.517 501.304" stroke="white" stroke-width="24" stroke-linecap="round"/>
<path d="M322.495 253.37C322.495 277.703 358.627 446.193 425.955 531.406" stroke="white" stroke-width="30" stroke-linecap="round" stroke-linejoin="round"/>
<path d="M247.955 253.37C247.955 277.703 211.824 446.193 144.495 531.406" stroke="white" stroke-width="30" stroke-linecap="round" stroke-linejoin="round"/>
</g>
<defs>
<clipPath id="clip0">
<path d="M0 0H580V580H0V0Z" fill="white"/>
</clipPath>
</defs>
</svg>
